X: 56
T:Elterwater Quickstep. HS.56
T:Lamb Skinnet,aka. HS.56
M:6/8
Q:110
C:By William Irwin, perhaps..Lamb Skinnet,aka
S:Henry Stables MS,Cumbria,late19thC
R:Jig
O:Walthwaite,nr.Ambleside.
A:England
N:This is very like Lamb Skinnet, from the NPTB #1, but not identical,
N:and may be one of those cases of "Mistaken Composition", although the
N:attribution to W.Irwin is entirely mine, based on the title, and not on
N:any false claim by W.I.,whose name is not appended to it....CGP..
Z:vmp.Chris Partington
K:G
B/c/|d>BG d>BG|c2e .e.f.g.|d>BG d>BG|FAAA2(B/c/)|!
B>AG B>AG|c2e .e.f.g|d>BG c>AF|A3G2::!
g/a/|b>af a>gf|{a}g>fe .d.c.B|.c.d.e .d.B.G|B3"qu"A2g/a/|!
b>af a>gf|{a}g>fe .d.c.B|c2e .d.B.G|A3G2:||
